Gurmukhi/0A33.svg

<svg enable-background="new 0 0 336 592" viewBox="0 0 336 592" xmlns="http://www.w3.org/2000/svg"><path d="m233.452759 378.549927c-13.370316 9.272949-28.374344 10.960052-43.64798 11.28949-4.003036.086334-5.79364-3.008606-5.946594-6.709443-.199402-4.824432.060211-9.667633-.131928-14.492614-.143905-3.613739 1.20575-4.978852 4.91037-5.068512 6.648667-.16095 13.274018-.88852 19.647492-3.051606 18.932144-6.425415 26.218994-19.774536 21.44133-39.313659-3.430909-14.031311-17.102204-31.155762-30.223908-37.473206-9.69368 19.061432-20.373245 37.544769-35.797684 53.363007-8.63887-8.703797-15.315567-18.187439-21.290817-28.167816-3.418289-5.709473-6.409118-11.674927-9.590668-17.526093-.995101-1.830017-1.895462-3.676392-4.520904-1.973328-12.101662 7.850098-22.714447 17.150422-27.703659 31.160096-7.124931 20.006805 2.600448 36.527008 23.908912 40.983337 5.030617 1.052063 10.191857 1.713013 15.322808 1.978516 4.160797.215301 6.279693 2.088775 6.418564 5.99002.201416 5.65799.014084 11.328736.078567 16.993073.030152 2.646881-1.42366 3.568207-3.757278 3.514893-21.893967-.500153-41.786476-5.864014-54.907944-25.079987-13.123405-19.218903-14.596565-39.984711-5.593689-61.310974 6.58847-15.606995 18.433205-26.781891 32.452309-35.683624 4.10321-2.605408 5.021972-4.947876 3.360809-9.583497-4.267822-11.90982-7.330109-24.194091-9.198578-36.725158-.541893-3.634247-2.406128-4.578751-5.763275-4.546311-12.329392.119156-24.663116-.08728-36.989601.136902-3.972119.072251-6.183857-1.174286-7.306355-5.048462-1.061992-3.665344-2.748203-7.144943-4.010673-10.758346-1.453633-4.160599-.288956-5.867554 4.160515-6.267868 1.489162-.133972 2.996898-.080628 4.496147-.080567 74.149929.003434 148.300045.078934 222.449459-.11322 5.933685-.015396 9.394348 1.543457 10.762054 7.452973.631867 2.730026 2.04773 5.269409 2.959748 7.945785 1.564117 4.589981.185791 6.675736-4.68689 6.726669-10.163239.106217-20.328339.024903-30.492676.032303-12.830414.009354-25.662872.163574-38.490005-.033874-3.906327-.060135-5.731675 1.285766-6.372864 5.098404-2.26738 13.482223-5.850159 26.637161-10.636688 39.435501-1.149384 3.073211-.5345 4.660705 2.114608 6.568054 16.485886 11.86972 30.445221 25.938049 37.612137 45.508789 4.368897 11.930084 5.817154 24.175323 3.224701 36.755585-2.393951 11.617065-8.406082 20.880462-18.259872 28.074768m-81.952759-161.373352c-7.770035 0-15.54007 0-23.316437 0 .867157 25.160415 19.898865 75.326111 33.393143 87.422455 18.597763-26.15857 28.790344-55.451157 35.288467-87.421891-15.485778 0-29.925476 0-45.365173-.000564z"/><path d="m274.984589 356.646942c7.926818 4.240479 11.574646 11.298645 10.151916 19.04422-1.298462 7.068939-6.813049 12.559418-13.592712 13.533325-8.113282 1.165436-15.217133-2.054535-18.406311-8.929229-3.079315-6.638031-2.992371-13.444123 1.860565-19.242554 5.233765-6.253479 12.230041-6.663086 19.986542-4.405762z"/></svg>

<svg version="1.1" id="Layer_1" xmlns="http://www.w3.org/2000/svg" xmlns:xlink="http://www.w3.org/1999/xlink" x="0px" y="0px"
	 width="100%" viewBox="0 0 336 592" enable-background="new 0 0 336 592" xml:space="preserve">
<path fill="#000000" opacity="1.000000" stroke="none" 
	d="
M233.452759,378.549927 
	C220.082443,387.822876 205.078415,389.509979 189.804779,389.839417 
	C185.801743,389.925751 184.011139,386.830811 183.858185,383.129974 
	C183.658783,378.305542 183.918396,373.462341 183.726257,368.637360 
	C183.582352,365.023621 184.932007,363.658508 188.636627,363.568848 
	C195.285294,363.407898 201.910645,362.680328 208.284119,360.517242 
	C227.216263,354.091827 234.503113,340.742706 229.725449,321.203583 
	C226.294540,307.172272 212.623245,290.047821 199.501541,283.730377 
	C189.807861,302.791809 179.128296,321.275146 163.703857,337.093384 
	C155.064987,328.389587 148.388290,318.905945 142.413040,308.925568 
	C138.994751,303.216095 136.003922,297.250641 132.822372,291.399475 
	C131.827271,289.569458 130.926910,287.723083 128.301468,289.426147 
	C116.199806,297.276245 105.587021,306.576569 100.597809,320.586243 
	C93.472878,340.593048 103.198257,357.113251 124.506721,361.569580 
	C129.537338,362.621643 134.698578,363.282593 139.829529,363.548096 
	C143.990326,363.763397 146.109222,365.636871 146.248093,369.538116 
	C146.449509,375.196106 146.262177,380.866852 146.326660,386.531189 
	C146.356812,389.178070 144.903000,390.099396 142.569382,390.046082 
	C120.675415,389.545929 100.782906,384.182068 87.661438,364.966095 
	C74.538033,345.747192 73.064873,324.981384 82.067749,303.655121 
	C88.656219,288.048126 100.500954,276.873230 114.520058,267.971497 
	C118.623268,265.366089 119.542030,263.023621 117.880867,258.388000 
	C113.613045,246.478180 110.550758,234.193909 108.682289,221.662842 
	C108.140396,218.028595 106.276161,217.084091 102.919014,217.116531 
	C90.589622,217.235687 78.255898,217.029251 65.929413,217.253433 
	C61.957294,217.325684 59.745556,216.079147 58.623058,212.204971 
	C57.561066,208.539627 55.874855,205.060028 54.612385,201.446625 
	C53.158752,197.286026 54.323429,195.579071 58.772900,195.178757 
	C60.262062,195.044785 61.769798,195.098129 63.269047,195.098190 
	C137.418976,195.101624 211.569092,195.177124 285.718506,194.984970 
	C291.652191,194.969574 295.112854,196.528427 296.480560,202.437943 
	C297.112427,205.167969 298.528290,207.707352 299.440308,210.383728 
	C301.004425,214.973709 299.626099,217.059464 294.753418,217.110397 
	C284.590179,217.216614 274.425079,217.135300 264.260742,217.142700 
	C251.430328,217.152054 238.597870,217.306274 225.770737,217.108826 
	C221.864410,217.048691 220.039062,218.394592 219.397873,222.207230 
	C217.130493,235.689453 213.547714,248.844391 208.761185,261.642731 
	C207.611801,264.715942 208.226685,266.303436 210.875793,268.210785 
	C227.361679,280.080505 241.321014,294.148834 248.487930,313.719574 
	C252.856827,325.649658 254.305084,337.894897 251.712631,350.475159 
	C249.318680,362.092224 243.306549,371.355621 233.452759,378.549927 
M151.500000,217.176575 
	C143.729965,217.176575 135.959930,217.176575 128.183563,217.176575 
	C129.050720,242.336990 148.082428,292.502686 161.576706,304.599030 
	C180.174469,278.440460 190.367050,249.147873 196.865173,217.177139 
	C181.379395,217.177139 166.939697,217.177139 151.500000,217.176575 
z"/>
<path fill="#000000" opacity="1.000000" stroke="none" 
	d="
M274.984589,356.646942 
	C282.911407,360.887421 286.559235,367.945587 285.136505,375.691162 
	C283.838043,382.760101 278.323456,388.250580 271.543793,389.224487 
	C263.430511,390.389923 256.326660,387.169952 253.137482,380.295258 
	C250.058167,373.657227 250.145111,366.851135 254.998047,361.052704 
	C260.231812,354.799225 267.228088,354.389618 274.984589,356.646942 
z"/>
</svg>
